X: 97
P: No. XCVII.
M: 6/8
L: 1/8
K: C
V: 1
d2d dBG | dBG d2d | e2e ecA | ecA Tf2g |\
edc c'cc | f/g/af gag | fed TB>AG | ECE GE/F/G |
(e/f/g)e (d/e/f)d | (e/f/g)e (f/g/a)f | cBA GcB | c3 C2 |]
V: 2 clef=bass middle=d
z |\
c'3 c3 | g2b c'2g | e3 c3 | g3 E3 |\
e3 c3 | a2f c'3 | d'2c' b3 |
afg [c'2c2] |] z |\
g3 G3 | B3 BAG | c3 c'3 | a3 d'2b |\
c'3 e2z | d3 B3 | d2f g3 |
c3 c3 | c3 c3 | d3 d3 | d3 b3 |\
c'3 b3 | c'3 f3 | g3 G3 | c3 c2 |]

